X:256
T: Sweet Molly
N: O'Farrell's Pocket Companion v.3 (Sky ed. p.120)
N: "Scotch"
M: 4/4
L: 1/8
R: hornpipe % strathspey?
Q: 220
K: Em
z| E<EBE dEBe| d>BAF DEFe | E<EBE dEBe| dBAF B3 {AB}E|
E>eef {ef}gfed| B/c/dAF DEFD| Eeef {ef}gfed| BdFA B2 {AB}E>F|
E>eef {ef}gfed| B^c/d/ AF DEFf/g/| a>fg>e fde^c| dBAF B3 :|
